X: 184
T: Liang xianghao
%%abc-version 2.0
%%abcx-abcm2ps-target-version 5.9.1 (29 Sep 2008)
%%abc-creator hum2abc beta
%%abcx-conversion-date 2013/10/02 07:52:29
%%abc-edited-by Helmut Schaffrath
%%humdrum-veritas 3775338165
%%humdrum-veritas-data 4263663173
%%continueall 1
%%barnumbers 0
L: 1/8
M: 2/4
K: Bb
d'2b c' [I:setbarnb 1]| 
f'2b g | 
d'b2c'/ d'/ | 
b a/ g/f2 | 
d'b2c' | 
f b a g | 
f g g f/ d/ | 
f4 |]  



